!!!!SEGMENT: pl-kk--kk-i-3--007-003_anonim--officium-secundum-et-in-terra.krn
!!!cenid: 15xx:591
!!!COM: Anonim
!!!COM-rismid: pe30004985
!!!CDT:
!!!CNT:
!!!OPR: Officium Secundum
!!!OTL: Et in terra
!!!OMV: 003
!!!PDT:
!!!AGN:
!!!SMS-siglum: PL-Kk
!!!SMS-shelfmark: Kk.I.3
!!!SMS-shelfwork: 007-003 M
!!!SMS-variant:
!!!SMS-altvar:
!!!NIFC-rismid: 1001145493
!!!URL-scan: http://repozytorium.nifc.pl/skany/pl-kk-nut--i-3
!!!ONB-nifc: UWAGA: Discantus (s. 30r-32r, skan 0032-0034), Tenor (s. 22v-24r, skan 0195-0196), Bassus (s. 27r-29r, skan 0330-0332). Następna część: Tollite portas
!!!key: C
**kern	**text	**kern	**text	**text	**kern	**text
*part3	*part3	*part2	*part2	*part2	*part1	*part1
*staff3	*staff3	*staff2	*staff2	*staff2	*staff1	*staff1
*I"Bassus	*	*I"Tenore	*	*	*I"Discantus	*
*I'B	*	*I'T	*	*	*I'S	*
*ICvox	*	*ICvox	*	*	*ICvox	*
*Ibass	*	*Itenor	*	*	*Isoprn	*
*clefC4	*	*clefC4	*	*	*clefG3	*
*k[]	*	*k[]	*	*	*k[b-]	*
*F:	*	*F:	*	*	*F:	*
*M2/1	*	*M2/1	*	*	*M2/1	*
*met(C|)	*	*met(C|)	*	*	*met(C|)	*
00ryy	.	1F	Glo-	.	00ryy	.
*	*	*lig	*	*	*	*
.	.	1F	-ri-	.	.	.
.	.	1E	.	.	.	.
.	.	1D	.	.	.	.
*	*	*Xlig	*	*	*	*
00ryy	.	1F	.	.	00ryy	.
.	.	1F,	-a	.	.	.
.	.	1G	in	.	.	.
.	.	1F	ex-	.	.	.
00ryy	.	1A	-cel-	.	00ryy	.
*	*	*lig	*	*	*	*
.	.	1D	-sis	.	.	.
.	.	1C	.	.	.	.
*	*	*Xlig	*	*	*	*
.	.	1D	.	.	.	.
00ryy	.	1F	.	.	00ryy	.
*	*	*lig	*	*	*	*
.	.	1G	de-	.	.	.
.	.	1F	.	.	.	.
*	*	*Xlig	*	*	*	*
*	*	*lig	*	*	*	*
.	.	1F	-o	.	.	.
!	!	!LO:SIC:v:custos: c	!	!	!	!
1ryy	.	1F	.	.	1ryy	.
*	*	*Xlig	*	*	*	*
=1-	=1-	=1-	=1-	=1-	=1-	=1-
!!LO:TX:t=P:problem:oznaczenia metrum są edytorskie - w rękopisie brak
*	*	*clefC3	*	*	*	*
!	!	!LO:LB:g=original	!	!	!	!
!LO:TX:t=d T A:note=litery zapisane na odpowiedniej pozycji w pięciolinii wskazują na wysokość dźwięku w poszczególnych głosach	!	!	!	!	!	!
1c	Et	1c	Et	.	1g	Et
*	*	*lig	*	*	*	*
1F	in	1f	in	.	1a	in
=2-	=2-	=2-	=2-	=2-	=2-	=2-
*lig	*	*	*	*	*	*
1c	.	1e	.	.	2g/	.
.	.	.	.	.	1cc	.
1G	.	1d	.	.	.	.
.	.	.	.	.	2b-\	.
*Xlig	*	*Xlig	*	*	*	*
=3-	=3-	=3-	=3-	=3-	=3-	=3-
1A	ter-	1c	ter-	.	1cc	.
1A	.	1e	-ra	.	1cc,	.
=4-	=4-	=4-	=4-	=4-	=4-	=4-
1A	.	1f	.	.	1cc	ter-
1G,	-ra	1g,	.	.	0b-	-ra
=5-	=5-	=5-	=5-	=5-	=5-	=5-
1G	pax	1g	pax	.	.	.
*	*	*lig	*	*	*	*
2d\	.	1f	ho-	.	2a,/	pax
2B/	.	.	.	.	2b-/	.
=6-	=6-	=6-	=6-	=6-	=6-	=6-
1c	.	1e	.	.	1g	.
*	*	*Xlig	*	*	*	*
!LO:SIC:v:t=custos F	!	!	!	!	!	!
1G	ho-	1d	-mi-	.	1g	.
=7-	=7-	=7-	=7-	=7-	=7-	=7-
!LO:LB:g=original	!	!	!	!	!	!
1c	.	1e	.	.	1g	ho-
*	*	*lig	*	*	*	*
!	!	!	!	!	!LO:SIC:v:t=custos cc	!
1F	-mi-	1f	.	.	1a	.
=8-	=8-	=8-	=8-	=8-	=8-	=8-
!	!	!	!	!	!LO:LB:g=original	!
1c	.	1e	.	.	1cc	-mi-
*	*	*Xlig	*	*	*	*
*	*	*lig	*	*	*	*
1G	-ni-	1d	-ni-	.	1b-	.
=9-	=9-	=9-	=9-	=9-	=9-	=9-
1c	.	1c	.	.	1cc	-ni-
*	*	*Xlig	*	*	*	*
!	!	!LO:SIC:v:t=custos G	!	!	!	!
1c	-bus	1c	-bus	.	1cc	.
=10-	=10-	=10-	=10-	=10-	=10-	=10-
1d	Bo-	1G	bo-	.	1b-,	-bus
1c	-ne	1A	.	.	1cc	bo-
=11-	=11-	=11-	=11-	=11-	=11-	=11-
1A	vo-	1c	-ne	.	1cc,	-ne
*	*	*lig	*	*	*	*
1G	.	1d	vo-	.	1b-	vo-
=12-	=12-	=12-	=12-	=12-	=12-	=12-
2A/	-lun-	1c	.	.	2cc\	.
2c\	.	.	.	.	1a	-lun-
*	*	*Xlig	*	*	*	*
*	*	*lig	*	*	*	*
1d	.	1B	-lun-	.	.	.
.	.	.	.	.	2g/	.
=13-	=13-	=13-	=13-	=13-	=13-	=13-
2e\	-ta-	1A	.	.	2a/	.
2c\	.	.	.	.	1cc	.
*	*	*Xlig	*	*	*	*
1d	.	1G	.	.	.	.
.	.	.	.	.	2b-\	.
=14-	=14-	=14-	=14-	=14-	=14-	=14-
!LO:SIC:v:t=custos G	!	!	!	!	!	!
1c	.	1A	-ta-	.	1cc	-ta-
!LO:LB:g=original	!	!	!	!	!	!
1G	-tis	1B	.	.	1b-	.
=15-	=15-	=15-	=15-	=15-	=15-	=15-
1c	lau-	1c,	-tis	.	1a	-tis
1G	.	1d	lau-	.	1b-	.
=16-	=16-	=16-	=16-	=16-	=16-	=16-
*lig	*	*	*	*	*	*
!	!	!	!	!	!LO:SIC:v:t=custos a	!
1G	-da-	1e	-da-	.	1g	lau-
!	!	!	!	!	!LO:PB:g=original	!
1F	.	1f	.	.	1a	-da-
*Xlig	*	*	*	*	*	*
=17-	=17-	=17-	=17-	=17-	=17-	=17-
*lig	*	*	*	*	*	*
1c	.	1e	.	.	2g/	.
.	.	.	.	.	1cc	.
1G	.	1d	.	.	.	.
.	.	.	.	.	2b-/	.
*Xlig	*	*	*	*	*	*
=18-	=18-	=18-	=18-	=18-	=18-	=18-
2C/	-mus	1c	.	.	1cc	.
1c	.	.	.	.	.	.
*	*	*lig	*	*	*	*
.	.	1d	-mus	.	2a/	-mus
2B\	.	.	.	.	2b-/	.
=19-	=19-	=19-	=19-	=19-	=19-	=19-
1c	te	1c,	.	.	1g	te
*	*	*Xlig	*	*	*	*
1c	Be-	1A	te	.	1cc	Be-
=20-	=20-	=20-	=20-	=20-	=20-	=20-
1d	-ne-	1B	.	.	1b-	-ne-
!	!	!LO:SIC:v:t=custos c	!	!	!	!
1d	-di-	1G	[[be glo-	be-	1b-	-di-
=21-	=21-	=21-	=21-	=21-	=21-	=21-
!	!	!LO:LB:g=original	!	!	!	!
2e\	.	1c	-ri-	-ne-	2g/	.
1c	.	.	.	.	2a/	.
*	*	*lig	*	*	*	*
.	.	1d	-fi-	-di-	1b-	-ci-
!LO:SIC:v:t=custos A	!	!	!	!	!	!
2B/	-ci-	.	.	.	.	.
*clefC3	*	*	*	*	*	*
=22-	=22-	=22-	=22-	=22-	=22-	=22-
!LO:PB:g=original	!	!	!	!	!	!
1A	.	1c	.	.	2cc\	.
.	.	.	.	.	1a	-mus
*	*	*Xlig	*	*	*	*
*	*	*lig	*	*	*	*
1G	.	1B	-ca-	-ci-	.	.
.	.	.	.	.	1g\	.
=23-	=23-	=23-	=23-	=23-	=23-	=23-
1c	-mus	1A	.	.	.	.
!	!	!	!	!	!LO:SIC:v:t=custos g	!
.	.	.	.	.	2f/	.
!	!	!	!	!	!LO:LB:g=original	!
1d	.	1G	.	.	1g	te
*	*	*Xlig	*	*	*	*
=24-	=24-	=24-	=24-	=24-	=24-	=24-
1c	te	1A	-mus]]	-mus	2e/	.
.	.	.	.	.	2f/	.
1G	a-	1B	.	.	1d	.
=25-	=25-	=25-	=25-	=25-	=25-	=25-
1c	-do-	1c,	te	.	1e	.
1g	-ra-	1e	A-	.	1g	a-
=26-	=26-	=26-	=26-	=26-	=26-	=26-
!LO:TX:t=P:problem:fragment wykreślony	!	!	!	!	!	!
2f\	.	1A	-do-	.	1a	-do-
1e	.	.	.	.	.	.
.	.	1e	-ra-	.	2g/	-ra-
1c\	.	.	.	.	2cc\	.
=27-	=27-	=27-	=27-	=27-	=27-	=27-
.	.	1f	.	.	2a/	-mus
!LO:SIC:v:t=custos c	!	!	!	!	!	!
2B/	.	.	.	.	2b-/	.
*	*	*lig	*	*	*	*
!LO:LB:g=original	!	!	!	!	!	!
1c	.	1e	.	.	2g/	.
.	.	.	.	.	1cc\	te
=28-	=28-	=28-	=28-	=28-	=28-	=28-
1G	.	1d	.	.	.	.
.	.	.	.	.	2b-\	.
1A	.	1c	.	.	1a	.
*	*	*Xlig	*	*	*	*
=29-	=29-	=29-	=29-	=29-	=29-	=29-
*	*	*lig	*	*	*	*
1G	-mus	1d	-mus	.	1b-	.
1c	.	1c	.	.	1g	.
*	*	*Xlig	*	*	*	*
=30-	=30-	=30-	=30-	=30-	=30-	=30-
!	!	!	!	!	!LO:SIC:v:t=custos f	!
2c/	te	1A	te	.	2g/	.
!	!	!	!	!	!LO:LB:g=original	!
2A/	.	.	.	.	2f/	.
1G	.	1B	.	.	1g	.
=31-	=31-	=31-	=31-	=31-	=31-	=31-
1g	glo-	1c	.	.	1e	.
!	!	!LO:SIC:v:t=custos d	!	!	!	!
2e/	-ri-	1c	glo-	.	1cc	glo-
1c\	-fi-	.	.	.	.	.
=32-	=32-	=32-	=32-	=32-	=32-	=32-
!	!	!LO:PB:g=original	!	!	!	!
.	.	1d	-ri-	.	2a/	-ri-
!	!	!	!	!	!LO:SIC:v:s=2b	!
2B/	.	.	.	.	2b-/	-fi-
1c	-ca-	1c	-fi-	.	1g	.
=33-	=33-	=33-	=33-	=33-	=33-	=33-
1G	.	1d	-ca-	.	1b-	-ca-
1G	.	1e	.	.	1b-	.
=34-	=34-	=34-	=34-	=34-	=34-	=34-
1F	.	1f	-mus	.	1a	.
1c	.	1e	.	.	2g/	.
.	.	.	.	.	1cc\	.
=35-	=35-	=35-	=35-	=35-	=35-	=35-
1G	-mus	1d,	.	.	.	.
.	.	.	.	.	2b-/	-mus
!LO:SIC:v:t=custos c	!	!	!	!	!	!
1C;;	te	1c	te	.	1cc;<	te
=36-	=36-	=36-	=36-	=36-	=36-	=36-
!LO:LB:g=original	!	!	!	!	!	!
1c	Gra-	1e	Gra-	.	1cc	Gra-
1A	-ci-	1f	-(ci)-	.	1cc	-ci-
=37-	=37-	=37-	=37-	=37-	=37-	=37-
!	!	!	!	!	!LO:SIC:v:t=custos g	!
1G	-as	1g,	-as	.	2b-/	-as
!	!	!	!	!	!LO:LB:g=original	!
.	.	.	.	.	1g	a-
*	*	*lig	*	*	*	*
1d	a-	1a	a-	.	.	.
.	.	.	.	.	2f/	.
=38-	=38-	=38-	=38-	=38-	=38-	=38-
2G/	.	1g	.	.	1g	.
1c	-gi-	.	.	.	.	.
*	*	*Xlig	*	*	*	*
*	*	*lig	*	*	*	*
.	.	1f	-gi-	.	2a/	-gi-
!	!	!	!	!	!LO:SIC:v:s=2b	!
2B/	.	.	.	.	2b-/	.
=39-	=39-	=39-	=39-	=39-	=39-	=39-
1c	.	1e	.	.	2g/	.
.	.	.	.	.	1a	-mus
*	*	*Xlig	*	*	*	*
1B	.	1d	-mus	.	.	.
.	.	.	.	.	2g/	.
=40-	=40-	=40-	=40-	=40-	=40-	=40-
1A	-mus	1e	.	.	1a	.
1A	ti-	1f	.	.	2a/	.
.	.	.	.	.	1cc\	.
=41-	=41-	=41-	=41-	=41-	=41-	=41-
1G	-bi	1g	t-	.	.	.
.	.	.	.	.	2b-\	ti-
1A	pro-	1c	-bi	.	1cc	-bi
=42-	=42-	=42-	=42-	=42-	=42-	=42-
!	!	!LO:SIC:v:t=custos A	!	!	!	!
1A	-pter	1e	pro-	.	2cc\	.
.	.	.	.	.	1a	.
!	!	!LO:LB:g=original	!	!	!	!
1F	ma-	1A	-pter	.	.	.
.	.	.	.	.	2a/	.
=43-	=43-	=43-	=43-	=43-	=43-	=43-
1G	-gna(m)	1B	.	.	1g	pro-
!	!	!	!	!	!LO:SIC:v:t=custos g	!
1g	.	1G	ma-	.	1b-	-pter
=44-	=44-	=44-	=44-	=44-	=44-	=44-
!	!	!	!	!	!	!LO:LB:g=original
!LO:SIC:v:t=custos e	!	!	!	!	!	!
2g\	glo-	1c,	-g(na)m	.	2g/	ma-
!LO:LB:g=original	!	!	!	!	!	!
2e\	-ri-	.	.	.	2cc\	-gna(m)
*	*	*lig	*	*	*	*
1f	-am	1d	tu-	.	2a/	glo-
.	.	.	.	.	2b-\	-ri-
=45-	=45-	=45-	=45-	=45-	=45-	=45-
1e	.	1c	.	.	1g	-a(m)
*	*	*Xlig	*	*	*	*
*	*	*lig	*	*	*	*
1d	.	1B	-a(m)	.	1g	tu-
=46-	=46-	=46-	=46-	=46-	=46-	=46-
2e\	.	1A,	.	.	1a	.
2c/	.	.	.	.	.	.
*	*	*Xlig	*	*	*	*
1d	.	1G	glo-	.	1b-	.
=47-	=47-	=47-	=47-	=47-	=47-	=47-
1c	tu-	1A	-ri-	.	1cc	.
1c;	-a(m)	1A,	-a(m)	.	1cc;<	-am
=48-	=48-	=48-	=48-	=48-	=48-	=48-
1c	Do-	1c	do-	.	1cc	Do-
1d	-mi-	1G	-mi-	.	1b-	-mi-
=49-	=49-	=49-	=49-	=49-	=49-	=49-
1c	-ne	1c,	-(ne)e	.	1cc	-ne
2A/	de-	1c	de-	.	2cc\	De-
2c/	.	.	.	.	2a/	-us
=50-	=50-	=50-	=50-	=50-	=50-	=50-
!LO:SIC:v:t=custos g	!	!	!	!	!	!
*	*	*lig	*	*	*	*
!	!	!	!	!	!LO:SIC:v:t=custos cc	!
2G/	.	1B	-us	.	1b-	.
!LO:LB:g=original	!	!	!	!	!	!
1g	-us	.	.	.	.	.
!	!	!	!	!	!LO:PB:g=original	!
.	.	1A	.	.	1cc	.
2f\	.	.	.	.	.	.
*	*	*Xlig	*	*	*	*
=51-	=51-	=51-	=51-	=51-	=51-	=51-
1g	rex	1G	rex	.	1b-	rex
2c/	ce-	1c	cae-	.	2g/	cel-
2e/	.	.	.	.	2a/	-le-
=52-	=52-	=52-	=52-	=52-	=52-	=52-
!	!	!	!	!	!LO:SIC:v:s=2b	!
1d	-lle-	1B	-le-	.	1b-	.
!	!	!LO:SIC:v:t=custos c	!	!	!	!
1c	.	1c	.	.	1g	-stis
=53-	=53-	=53-	=53-	=53-	=53-	=53-
!	!	!LO:LB:g=original	!	!	!	!
1A	-stis	1c,	-ſtis	.	1cc,	.
1G	de-	1d	de-	.	1b-	de-
=54-	=54-	=54-	=54-	=54-	=54-	=54-
2F/	-us	1f	-us	.	1a	-us
1f	pa-	.	.	.	.	.
.	.	1c	pa-	.	2g/	Pa-
2e\	.	.	.	.	1a\	-ter
=55-	=55-	=55-	=55-	=55-	=55-	=55-
*	*	*lig	*	*	*	*
1d	-ter	1B	-ter	.	.	.
.	.	.	.	.	2g/	om-
2e\	om-	1A	.	.	2a/	.
2f\	.	.	.	.	2f/	-ni-
*	*	*Xlig	*	*	*	*
=56-	=56-	=56-	=56-	=56-	=56-	=56-
1d	.	1G	om-	.	1g	.
!LO:SIC:v:t=custos A	!	!	!	!	!	!
1c	.	1A	.	.	1f	.
=57-	=57-	=57-	=57-	=57-	=57-	=57-
!LO:PB:g=original	!	!	!	!	!	!
1A	.	1c	-ni-	.	2e/	.
!	!	!	!	!	!LO:SIC:v:t=custos d	!
.	.	.	.	.	2f/	.
*	*	*lig	*	*	*	*
!	!	!	!	!	!LO:LB:g=original	!
2G/	.	1B	-po-	.	2d/	.
1d\	-ni-	.	.	.	1g\	.
=58-	=58-	=58-	=58-	=58-	=58-	=58-
.	.	1A	.	.	.	.
1c	.	.	.	.	2f/	.
.	.	1G	.	.	1g	-po-
2B/	-po-	.	.	.	.	.
*	*	*Xlig	*	*	*	*
=59-	=59-	=59-	=59-	=59-	=59-	=59-
1c;	-tens	1A	-tens	.	1e;	-tens
1c	Do-	1c	d(o-	.	1g	Do-
=60-	=60-	=60-	=60-	=60-	=60-	=60-
1d	-mi-	1G	-mi)-	.	1g	-mi-
2c/	-ne	1c,	-ne	.	2g/	-ne
2A/	fi-	.	.	.	1a\	fi-
=61-	=61-	=61-	=61-	=61-	=61-	=61-
2F/	.	1c	fi-	.	.	.
2A/	.	.	.	.	2f/	-li
1G	-li	1B	-li	.	1g,	.
=62-	=62-	=62-	=62-	=62-	=62-	=62-
2B/	v-	1d	v-	.	1g	V-
1d	-ni	.	.	.	.	.
!	!	!LO:SIC:v:t=custos f	!	!	!	!
.	.	1e	-ni	.	1g	-ni-
!LO:SIC:v:t=custos B	!	!	!	!	!	!
1c\	ge-	.	.	.	.	.
=63-	=63-	=63-	=63-	=63-	=63-	=63-
!LO:LB:g=original	!	!LO:LB:g=original	!	!	!	!
*	*	*lig	*	*	*	*
.	.	1f	ge-	.	2a/	-ge-
!	!	!	!	!	!LO:SIC:v:s=2b	!
2B/	.	.	.	.	2b-/	.
!	!	!	!	!	!LO:SIC:v:t=custos cc	!
1c	.	1e	.	.	2g/	.
!	!	!	!	!	!LO:LB:g=original	!
.	.	.	.	.	1cc\	.
*	*	*Xlig	*	*	*	*
=64-	=64-	=64-	=64-	=64-	=64-	=64-
*	*	*lig	*	*	*	*
1G	.	1d	-ni-	.	.	.
.	.	.	.	.	2b-\	-ni-
1g	-ni-	1c	.	.	1cc	-te
*	*	*Xlig	*	*	*	*
=65-	=65-	=65-	=65-	=65-	=65-	=65-
1e	.	1c	-te	.	1cc,	.
2d/	-te	1B	Je-	.	1dd	Je-
1g\	Je-	.	.	.	.	.
=66-	=66-	=66-	=66-	=66-	=66-	=66-
.	.	1d	-ſu	.	1dd	-ſu
2f\	-su	.	.	.	.	.
1f	cri-	1d	Chri-	.	1dd	cri-
=67-	=67-	=67-	=67-	=67-	=67-	=67-
!	!	!	!	!	!LO:SIC:v:s=1b	!
1g	-ste	1G,	-ſte	.	1b-	-ste
1e	al-	1c	al-	.	2g/	al-
.	.	.	.	.	1a\	-tis-
=68-	=68-	=68-	=68-	=68-	=68-	=68-
*	*	*lig	*	*	*	*
1d	-tis-	1B	-tiſ-	.	.	.
.	.	.	.	.	1g	.
2e\	.	1A	.	.	.	.
2f\	.	.	.	.	2f/	.
=69-	=69-	=69-	=69-	=69-	=69-	=69-
1d	.	1G	.	.	1g	.
*	*	*Xlig	*	*	*	*
2c/	.	1A	-ſi-	.	2e/	.
!LO:SIC:v:t=custos G	!	!	!	!	!	!
2A/	.	.	.	.	2f/	.
=70-	=70-	=70-	=70-	=70-	=70-	=70-
!LO:LB:g=original	!	!	!	!	!	!
1G	-si-	1B	.	.	1g	-si-
!	!	!	!	!	!LO:SIC:v:t=custos b-	!
1c;	-me	1c	-me	.	1e;	-me
=71||-	=71||-	=71||-	=71||-	=71||-	=71||-	=71||-
*k[]	*	*k[]	*	*	*k[]	*
!!LO:TX:t=P:problem:w celu wyświetlania zmiany znaków przykluczowych w D dodana edytorska podówjna kreska
!	!	!	!	!	!LO:LB:g=original	!
!	!	!	!	!	!LO:TX:t=P:problem:od tego momentu brak bemola b- przy kluczu	!
1G	Do-	1g	Do-	.	1b	Do-
1d	-mi-	1f	-mi-	.	1a	-mi-
=72-	=72-	=72-	=72-	=72-	=72-	=72-
!	!	!LO:SIC:v:t=custos f	!	!	!	!
1c	-ne	1e	-ne	.	1cc	-ne
*	*	*lig	*	*	*	*
!	!	!LO:LB:g=original	!	!	!	!
1F	de-	1f	de-	.	1a	de-
=73-	=73-	=73-	=73-	=73-	=73-	=73-
1G	.	1d	.	.	1b	.
1A	.	1c	.	.	1cc	.
*	*	*Xlig	*	*	*	*
=74-	=74-	=74-	=74-	=74-	=74-	=74-
2G/	-us	1d	-us	.	2b\	-us
2B/	a-	.	.	.	2g/	.
1A	.	1e	a-	.	1a	a-
=75-	=75-	=75-	=75-	=75-	=75-	=75-
1G	-gnus	1g	-gnus	.	1b,	-gnus
1F	de-	1a	de-	.	1cc	de-
=76-	=76-	=76-	=76-	=76-	=76-	=76-
!LO:SIC:v:t=custos d	!	!	!	!	!	!
1G	.	1g	.	.	1b	.
!LO:LB:g=original	!	!	!	!	!	!
1d	.	1f	.	.	2a/	.
.	.	.	.	.	1dd\	.
=77-	=77-	=77-	=77-	=77-	=77-	=77-
1e	.	1e	.	.	.	.
.	.	.	.	.	2cc\	.
1d	.	1f	.	.	1dd	-i
=78-	=78-	=78-	=78-	=78-	=78-	=78-
1G	-i	1g,	-i	.	1b	fi-
!	!	!	!	!	!LO:SIC:v:t=custos cc	!
1G	fi-	1g	fi-	.	1b	-li-
=79-	=79-	=79-	=79-	=79-	=79-	=79-
!	!	!LO:TX:t=P:problem:defekt źródła	!	!	!	!
!	!	!	!	!	!LO:LB:g=original	!
2A/	-li-	0ryy,	-li-	.	1cc	-us
2F/	-us	.	.	.	.	.
1A	.	.	-us	.	1a	pa-
=80-	=80-	=80-	=80-	=80-	=80-	=80-
2G/	pa-	1B	pa-	.	1b	.
1g	.	.	.	.	.	.
.	.	1c	.	.	1g	-tris
2g\	-tris	.	.	.	.	.
=81-	=81-	=81-	=81-	=81-	=81-	=81-
2e\	.	1c	-tris	.	2g/	q(ui)
2c/	.	.	.	.	1e	to-
1e	qui	1c	q(ui)	.	.	.
.	.	.	.	.	2c/	.
=82-	=82-	=82-	=82-	=82-	=82-	=82-
1d	tol-	1B	tol-	.	2d/	-llis
.	.	.	.	.	2dd\	pec-
!	!	!LO:SIC:v:t=custos c	!	!	!	!
2G/	-lis	1d	-lis	.	2b\	-ca-
2g\	.	.	.	.	2g/	.
=83-	=83-	=83-	=83-	=83-	=83-	=83-
!LO:SIC:v:t=custos c	!	!	!	!	!	!
!	!	!LO:PB:g=original	!	!	!	!
2e\	pec-	1c	pec-	.	1a	.
!LO:LB:g=original	!	!	!	!	!	!
2c/	.	.	.	.	.	.
*	*	*lig	*	*	*	*
1e	-ca-	1c	-ca-	.	2g/	-ta
.	.	.	.	.	1a\	.
=84-	=84-	=84-	=84-	=84-	=84-	=84-
1d	.	1B	.	.	.	.
.	.	.	.	.	1g	.
1c	.	1A	.	.	.	.
.	.	.	.	.	2f/	.
*	*	*Xlig	*	*	*	*
=85-	=85-	=85-	=85-	=85-	=85-	=85-
1d	-ta	1G	-ta	.	1g	.
!	!	!	!	!	!LO:SIC:v:t=custos cc	!
2c/	mu(n)-	1A	m(un)-	.	1cc	mu-
1e\	.	.	.	.	.	.
=86-	=86-	=86-	=86-	=86-	=86-	=86-
!	!	!	!	!	!LO:PB:g=original	!
.	.	1A	-di	.	1cc	-di
2c/	-di	.	.	.	.	.
1d	mi-	1G	mi-	.	1b	mi-
=87-	=87-	=87-	=87-	=87-	=87-	=87-
1c	-se-	1c	-ſe-	.	2a/	-se-
.	.	.	.	.	1g	-re-
1A	-re-	1c	-re-	.	.	.
.	.	.	.	.	2f/	-re
=88-	=88-	=88-	=88-	=88-	=88-	=88-
1G	-re	1B	-re	.	1g	.
1c	no-	1c	no-	.	1g	no-
=89-	=89-	=89-	=89-	=89-	=89-	=89-
1c;	-bis	1c	-bis	.	1g;	-bis
*	*	*lig	*	*	*	*
0A	Qui	1e	Qui	.	0cc	Qui
=90-	=90-	=90-	=90-	=90-	=90-	=90-
.	.	1e	.	.	.	.
*	*	*Xlig	*	*	*	*
1c	tol-	1A	tol-	.	1cc	tol-
=91-	=91-	=91-	=91-	=91-	=91-	=91-
!LO:SIC:v:t=custos F	!	!	!	!	!	!
1A	-lis	1e,	-lis	.	1cc	-lis
*	*	*lig	*	*	*	*
!LO:PB:g=original	!	!	!	!	!	!
1F	pec-	1f	pec-	.	1a	pec-
=92-	=92-	=92-	=92-	=92-	=92-	=92-
1c	.	1e	.	.	2g/	.
.	.	.	.	.	1cc	-ca-
*	*	*Xlig	*	*	*	*
1G	-ca-	1d	-ca-	.	.	.
.	.	.	.	.	2b/	-ta
=93-	=93-	=93-	=93-	=93-	=93-	=93-
1g	-ta	1c	-ta	.	1cc	.
*	*	*lig	*	*	*	*
2g\	.	1e	mu(n)-	.	2b/	mu(n)-
!	!	!	!	!	!	!LO:LB:g=original
2e\	mu(n)-	.	.	.	2cc\	-di
=94-	=94-	=94-	=94-	=94-	=94-	=94-
!	!	!LO:SIC:v:custos: e	!	!	!	!
1f	.	1d	.	.	1dd	.
*	*	*Xlig	*	*	*	*
!	!	!LO:LB:g=original	!	!	!	!
1e	-di	1e	-di	.	1g	Su-
=95-	=95-	=95-	=95-	=95-	=95-	=95-
2f\	sus-	1A	ſus-	.	1cc	-sci-
1e	-ci-	.	.	.	.	.
.	.	1A	-ci-	.	1a	-pe
2c/	.	.	.	.	.	.
=96-	=96-	=96-	=96-	=96-	=96-	=96-
1e	-pe	1e	-pe	.	2g/	de-
.	.	.	.	.	2a/	.
1d	de-	1f	de-	.	2b/	.
.	.	.	.	.	1a\	.
=97-	=97-	=97-	=97-	=97-	=97-	=97-
!	!	!LO:TX:t=P:problem: defekt źródła	!	!	!	!
2B/	-p(r)e-	1ryy	-pre-	.	.	.
2G/	.	.	.	.	1g	-pre-
1A	-ca-	1c	-ca-	.	.	.
.	.	.	.	.	2f/	-ca-
=98-	=98-	=98-	=98-	=98-	=98-	=98-
!	!	!LO:TX:t=P:problem: defekt źródła	!	!	!	!
1G	-ci-	1ryy	-ci-	.	2g/	-ci-
.	.	.	.	.	1b	-o-
!LO:SIC:v:t=custos F	!	!	!	!	!	!
!	!	!LO:TX:t=P:problem: defekt źródła	!	!	!	!
2G/	-o-	1ryy	-o-	.	.	.
!LO:LB:g=original	!	!	!	!	!	!
!LO:TX:t=P:problem:przed nutą bemol B- dopisany inną ręką	!	!	!	!	!	!
2F/	-nem	.	.	.	1a\	.
=99-	=99-	=99-	=99-	=99-	=99-	=99-
!LO:SIC:v:s=1B-	!	!	!	!	!	!
1B	.	1d,	-ne(m)	.	.	.
.	.	.	.	.	2g/	-nem
1A	n(o-	1c	n(o-	.	1a	no-
=100-	=100-	=100-	=100-	=100-	=100-	=100-
1A;	-st)ram	1c;,	-st)ram	.	1a;	-stra(m)
!LO:TX:t=d A T:note=litery zapisane na odpowiedniej pozycji w pięciolinii wskazują na wysokość dźwięku w poszczególnych głosach	!	!	!	!	!LO:LB:g=original	!
1c	Qui	1A	qui	.	1a	Qui
=101-	=101-	=101-	=101-	=101-	=101-	=101-
2G/	.	1B	.	.	1g	.
1d	.	.	.	.	.	.
.	.	1A	.	.	2a/	.
1c\	.	.	.	.	2cc\	.
=102-	=102-	=102-	=102-	=102-	=102-	=102-
.	.	1G	.	.	1dd	.
2B/	.	.	.	.	.	.
1c	.	1e	se-	.	0cc	se-
=103-	=103-	=103-	=103-	=103-	=103-	=103-
2A/	se-	1f	.	.	.	.
2F/	.	.	.	.	.	.
1c	.	1e	.	.	1cc	.
=104-	=104-	=104-	=104-	=104-	=104-	=104-
1d	.	1d	.	.	2a/	-des
.	.	.	.	.	2b\	.
2A/	.	1c	.	.	2cc\	.
!LO:SIC:v:t=custos B	!	!	!	!	!	!
2c/	.	.	.	.	1a\	.
=105-	=105-	=105-	=105-	=105-	=105-	=105-
!LO:LB:g=original	!	!LO:SIC:v:t=custos e	!	!	!	!
1B	.	1d	.	.	.	.
.	.	.	.	.	2g/	.
!	!	!LO:LB:g=original	!	!	!	!
1A	-des	1e	-des	.	1a	.
!	!	!	!	!	!LO:LB:g=original	!
=106-	=106-	=106-	=106-	=106-	=106-	=106-
1c	ad	1e	a	.	2g/	.
.	.	.	.	.	2cc\	.
1d	.	1f	.	.	2a/	.
.	.	.	.	.	1dd\	dex-
=107-	=107-	=107-	=107-	=107-	=107-	=107-
1G	.	1g	.	.	.	.
!	!	!	!	!	!LO:SIC:v:t=custos cc	!
.	.	.	.	.	2dd\	.
1c	dex-	1g	de-	.	1cc	.
=108-	=108-	=108-	=108-	=108-	=108-	=108-
2F/	.	1f	.	.	2a/	.
2A/	.	.	.	.	2f/	.
1G	.	1e	.	.	1g	-te-
=109-	=109-	=109-	=109-	=109-	=109-	=109-
2F/	.	1f	.	.	1a	-ram
1f	-te-	.	.	.	.	.
.	.	1d	-xte-	.	2a\	pa-
2d\	.	.	.	.	2b\	.
=110-	=110-	=110-	=110-	=110-	=110-	=110-
1e	-ra(m)	1c	-ra(m)	.	1cc	-tris
*	*	*lig	*	*	*	*
1c	pa-	1e	p(at)-	.	1cc	.
=111-	=111-	=111-	=111-	=111-	=111-	=111-
*	*	*	*	*	*	*
1d	.	1d	.	.	0a	mi-
*	*	*Xlig	*	*	*	*
1A	-tris	1e,	-ris	.	.	.
=112-	=112-	=112-	=112-	=112-	=112-	=112-
!LO:SIC:v:t=custos c	!	!	!	!	!	!
2A/	Mi-	1e	mi-	.	1cc	-se-
!LO:LB:g=original	!	!	!	!	!	!
1c	-se-	.	.	.	.	.
*	*	*lig	*	*	*	*
.	.	1f	-ſe-	.	2a/	-re-
2B/	.	.	.	.	2b\	.
=113-	=113-	=113-	=113-	=113-	=113-	=113-
1c	.	1e	.	.	2g/	.
.	.	.	.	.	1a	.
*	*	*Xlig	*	*	*	*
*	*	*lig	*	*	*	*
1G	-re-	1d	-re-	.	.	.
.	.	.	.	.	1g\	-re
=114-	=114-	=114-	=114-	=114-	=114-	=114-
1A	.	1c	.	.	.	.
.	.	.	.	.	2f/	.
2G/	-re	1B	.	.	1g	no-
1g\	No-	.	.	.	.	.
*	*	*Xlig	*	*	*	*
=115-	=115-	=115-	=115-	=115-	=115-	=115-
!!LO:TX:t=P:problem:niepewna koordynacja głosów w t. 115-116
!	!	!	!	!	!LO:SIC:v:t=custos b	!
!	!	!	!	!	!	!
.	.	1d,	-re	.	2a	.
!	!	!	!	!	!LO:LB:g=original	!
2f\	.	.	.	.	2b	.
!LO:N:vis=1	!	!	!	!	!	!
!	!	!	!	!	!	!
!	!	!	!	!	!	!
1g	.	1c	no-	.	1cc;<	-bis
=116-	=116-	=116-	=116-	=116-	=116-	=116-
!	!	!LO:SIC:v:t=custos A	!	!	!	!
1g;<	-bis	1c	-bis	.	1ryy	.
!LO:TX:t=A [[s]] d t:note=litery zapisane na odpowiedniej pozycji w pięciolinii wskazują na wysokość dźwięku w poszczególnych głosach	!	!LO:LB:g=original	!	!	!	!
1A	Quo-	1A	Quo-	.	1cc	Quo-
=117-	=117-	=117-	=117-	=117-	=117-	=117-
1G	-ni-	1B	-(ni)-	.	1b	-ni-
2A/	-a(m)	1c,	-(a)m	.	1a	-am
1c\	tu	.	.	.	.	.
=118-	=118-	=118-	=118-	=118-	=118-	=118-
.	.	1d	tu	.	2a/	tu
2B/	.	.	.	.	2b\	so-
!LO:SIC:v:t=custos F	!	!	!	!	!	!
*	*	*lig	*	*	*	*
2A/	So-	1c	so-	.	1cc	.
!LO:LB:g=original	!	!	!	!	!	!
2F/	.	.	.	.	.	.
=119-	=119-	=119-	=119-	=119-	=119-	=119-
1G	.	1B	.	.	1g	.
*	*	*Xlig	*	*	*	*
1F	.	1A	.	.	1a	.
=120-	=120-	=120-	=120-	=120-	=120-	=120-
1G	.	1B	.	.	1g	.
1B	-lus	1G	-lus	.	2f/	-lus
.	.	.	.	.	1g\	.
=121-	=121-	=121-	=121-	=121-	=121-	=121-
1A	san-	1A	san-	.	.	.
.	.	.	.	.	2f/	San-
1G	.	1B	.	.	1g	-ctus
=122-	=122-	=122-	=122-	=122-	=122-	=122-
1g	-ct(us)	1c	-ctus	.	1e	Tu
!	!	!	!	!	!LO:SIC:v:t=custos cc	!
2e\	Tu	1e	tu	.	1g	.
2g\	so-	.	.	.	.	.
=123-	=123-	=123-	=123-	=123-	=123-	=123-
!	!	!	!	!	!LO:PB:g=original	!
2f\	-lus	1A	so-	.	1cc	so-
1e\	do-	.	.	.	.	.
.	.	1e	-lus	.	2g/	-lus
2c/	.	.	.	.	1cc\	do-
=124-	=124-	=124-	=124-	=124-	=124-	=124-
*	*	*lig	*	*	*	*
1d	.	1f	do-	.	.	.
.	.	.	.	.	2b/	.
2A/	.	1e	.	.	2a/	.
2c/	.	.	.	.	1g\	.
=125-	=125-	=125-	=125-	=125-	=125-	=125-
1G	.	1d	.	.	.	.
.	.	.	.	.	2g/	.
1A	.	1c	.	.	2e/	-mi-
.	.	.	.	.	2f/	.
=126-	=126-	=126-	=126-	=126-	=126-	=126-
*	*	*Xlig	*	*	*	*
!LO:SIC:v:t=custos g	!	!	!	!	!	!
1G	-mi-	1B	-mi-	.	1g	.
!LO:PB:g=original	!	!	!	!	!	!
1g	.	1c	.	.	1e	.
=127-	=127-	=127-	=127-	=127-	=127-	=127-
!	!	!LO:SIC:v:t=custos g	!	!	!	!
2a\	-nus	1c	-nus	.	2c/	-nus
1g\	tu	.	.	.	2cc\	Tu
!	!	!LO:LB:g=original	!	!	!	!
.	.	1g	Tu	.	2b\	.
2e/	.	.	.	.	2cc\	.
=128-	=128-	=128-	=128-	=128-	=128-	=128-
*	*	*lig	*	*	*	*
1d	.	1a	.	.	1dd	.
1G	.	1g	.	.	1b	so-
=129-	=129-	=129-	=129-	=129-	=129-	=129-
*	*	*Xlig	*	*	*	*
!	!	!	!	!	!LO:SIC:v:t=custos cc	!
1A	so-	1c	ſo-	.	1cc	-lus
!	!	!	!	!	!LO:LB:g=original	!
1A	-lus	1e	-lus	.	1cc	al-
=130-	=130-	=130-	=130-	=130-	=130-	=130-
1G	al-	1g	al-	.	1b	.
*	*	*lig	*	*	*	*
1F	.	1a	-tiſ-	.	1cc	.
=131-	=131-	=131-	=131-	=131-	=131-	=131-
2G/	.	1g	.	.	2b\	.
1c\	-tiſ-	.	.	.	2g/	.
*	*	*Xlig	*	*	*	*
.	.	1f	-ſi-	.	2a/	.
2B/	-ſi-	.	.	.	2b\	-tis-
=132-	=132-	=132-	=132-	=132-	=132-	=132-
1c	-mus	1e	.	.	1g	-si-
1G	.	1d,	-mus	.	1g	-mus
=133-	=133-	=133-	=133-	=133-	=133-	=133-
2c/	Je-	1e	Je-	.	1cc	Je-
!LO:SIC:v:t=custos G	!	!	!	!	!	!
2A/	.	.	.	.	.	.
!LO:LB:g=original	!	!	!	!	!	!
1G	-su	1g,	-ſu	.	1b	-su
=134-	=134-	=134-	=134-	=134-	=134-	=134-
*	*	*lig	*	*	*	*
1G	cri-	1g	Chri-	.	1b	cri-
1c	.	1e	.	.	1g	.
=135-	=135-	=135-	=135-	=135-	=135-	=135-
*	*	*Xlig	*	*	*	*
1c;	-ste	1c;<	-ſte	.	1g;	-ste
*	*	*lig	*	*	*	*
0G	Cum	1g	Cum	.	0b	Cum
=136-	=136-	=136-	=136-	=136-	=136-	=136-
.	.	1g	.	.	.	.
*	*	*Xlig	*	*	*	*
!	!	!	!	!	!LO:SIC:v:t=custos a	!
1c	san-	1e	ſan-	.	1cc	san-
=137-	=137-	=137-	=137-	=137-	=137-	=137-
!	!	!LO:SIC:v:t=custos g	!	!	!	!
!	!	!	!	!	!LO:LB:g=original	!
1d	-cto	1f	.	.	1a	.
!	!	!LO:PB:g=original	!	!	!	!
1G	.	1g	-cto	.	1b	-cto
=138-	=138-	=138-	=138-	=138-	=138-	=138-
*	*	*lig	*	*	*	*
2F/	spi-	1a	spi-	.	1cc	spi-
1f\	.	.	.	.	.	.
.	.	1g	.	.	1cc	.
2e\	.	.	.	.	.	.
=139-	=139-	=139-	=139-	=139-	=139-	=139-
*	*	*Xlig	*	*	*	*
*	*	*lig	*	*	*	*
1d	.	1f	-ri-	.	1a	-ri-
1c	-ri-	1e	.	.	1cc	.
=140-	=140-	=140-	=140-	=140-	=140-	=140-
*	*	*Xlig	*	*	*	*
1d	-tu	1f	.	.	1a	.
2G/	in	1g	-tu	.	1b	-tu
1g\	glo-	.	.	.	.	.
=141-	=141-	=141-	=141-	=141-	=141-	=141-
.	.	1e	in	.	1g	in
!LO:SIC:v:t=custos c	!	!	!	!	!	!
2e\	-ri-	.	.	.	.	.
!LO:LB:g=original	!	!	!	!	!	!
2c/	.	1g	glo-	.	2c/	glo-
2e\	.	.	.	.	1cc\	.
=142-	=142-	=142-	=142-	=142-	=142-	=142-
1d	.	1f	.	.	.	.
.	.	.	.	.	2b\	-ri-
2c/	.	1e	.	.	1cc	.
1A/	.	.	.	.	.	.
=143-	=143-	=143-	=143-	=143-	=143-	=143-
.	.	1d	.	.	1b	.
2G/	.	.	.	.	.	.
1A	.	1c	-ri-	.	2a/	.
.	.	.	.	.	2f/	.
=144-	=144-	=144-	=144-	=144-	=144-	=144-
2G/	.	1d	.	.	2g/	.
!	!	!	!	!	!LO:SIC:v:t=custos e	!
1d\	.	.	.	.	2f/	.
!	!	!	!	!	!LO:LB:g=original	!
.	.	1A	-a	.	1e	-a
2c/	-a	.	.	.	.	.
=145-	=145-	=145-	=145-	=145-	=145-	=145-
1d	.	1B	.	.	2d/	de-
.	.	.	.	.	1dd\	.
1d	de-	1G	de-	.	.	.
.	.	.	.	.	2b/	.
=146-	=146-	=146-	=146-	=146-	=146-	=146-
1c	.	1A	-i	.	1a	.
2A/	.	1c	.	.	2a/	.
2c/	.	.	.	.	1g\	.
=147-	=147-	=147-	=147-	=147-	=147-	=147-
1G	.	1d	pa	.	.	.
.	.	.	.	.	2g/	.
1c	.	1c	.	.	1a	-i
=148-	=148-	=148-	=148-	=148-	=148-	=148-
1d	.	1B	.	.	1b	.
1c	-i	1A	.	.	1cc	.
=149-	=149-	=149-	=149-	=149-	=149-	=149-
!LO:SIC:v:t=custos c	!	!	!	!	!	!
1d	pa-	1G	pa-	.	1b	.
*clefC4	*	*	*	*	*	*
!LO:LB:g=original	!	!	!	!	!	!
1c	.	1A	.	.	1a	.
=150-	=150-	=150-	=150-	=150-	=150-	=150-
*lig	*	*	*	*	*	*
!	!	!LO:SIC:v:t=custos d	!	!	!	!
1e	.	1c	.	.	2g/	pa-
.	.	.	.	.	1cc\	.
!	!	!LO:LB:g=original	!	!	!	!
1d	.	1d	.	.	.	.
.	.	.	.	.	2b\	.
*Xlig	*	*	*	*	*	*
=151-	=151-	=151-	=151-	=151-	=151-	=151-
1c	.	1e	.	.	1cc	.
!	!	!	!	!	!LO:SIC:v:t=custos a	!
2A/	.	1f	.	.	2cc\	.
!	!	!	!	!	!LO:LB:g=original	!
2F/	.	.	.	.	2a/	.
=152-	=152-	=152-	=152-	=152-	=152-	=152-
!LO:SIC:v:s=1c	!	!	!	!	!	!
1c	.	1e	.	.	2g/	.
.	.	.	.	.	1cc\	.
!LO:SIC:v:s=1G	!	!	!	!	!	!
1G	.	1d	.	.	.	.
.	.	.	.	.	2b\	-tris
=153-	=153-	=153-	=153-	=153-	=153-	=153-
1A	.	1c,	-tris	.	1cc	.
1G	.	1B	a-	.	1g	A-
=154-	=154-	=154-	=154-	=154-	=154-	=154-
2D/	-tris	1d	.	.	2a/	.
2G/	A-	.	.	.	1b\	.
*	*	*lig	*	*	*	*
2E/	.	1e	.	.	.	.
2C/	.	.	.	.	1cc\	.
=155-	=155-	=155-	=155-	=155-	=155-	=155-
1G	.	1d	.	.	.	.
.	.	.	.	.	2b\	.
*	*	*Xlig	*	*	*	*
2A/	.	1c	.	.	1a	.
2F/	.	.	.	.	.	.
=156-	=156-	=156-	=156-	=156-	=156-	=156-
1G	.	1B	.	.	1g	.
2A/	.	1c	.	.	2e/	.
2F/	.	.	.	.	2a/	.
=157-	=157-	=157-	=157-	=157-	=157-	=157-
*	*	*lig	*	*	*	*
1c	.	1c	-men	.	1g	.
1C;	-men	1c	.	.	1g;;	-men
*	*	*Xlig	*	*	*	*
==	==	==	==	==	==	==
*-	*-	*-	*-	*-	*-	*-
!!!system-decoration: [(s1,s2,s3)]
!!!AIN: 1 bass 1 soprn 1 tenor
!!!ENC: Andrzej Gręziak
!!!END: 2021-12-30
!!!ENC: Kamil Watkowski
!!!END: 2022-01-27
!!!RDF**kern: > = above
!!!RDF**kern: < = below
